public/logos/Y4.svg

<?xml version="1.0" encoding="UTF-8"?>
<svg xmlns="http://www.w3.org/2000/svg" xmlns:xlink="http://www.w3.org/1999/xlink" width="176pt" height="39.5pt" viewBox="0 0 176 39.5" version="1.1">
<defs>
<clipPath id="clip1">
  <path d="M 16 33 L 23 33 L 23 39.5 L 16 39.5 Z M 16 33 "/>
</clipPath>
</defs>
<g id="surface1">
<path style=" stroke:none;fill-rule:nonzero;fill:rgb(13.587952%,12.979126%,12.802124%);fill-opacity:1;" d="M 51.65625 12.566406 L 58.046875 12.566406 L 62.898438 25.199219 L 62.992188 25.199219 L 67.464844 12.566406 L 73.410156 12.566406 L 65.878906 31.175781 L 59.613281 31.175781 L 51.65625 12.566406 "/>
<path style=" stroke:none;fill-rule:nonzero;fill:rgb(13.587952%,12.979126%,12.802124%);fill-opacity:1;" d="M 84.691406 26.582031 C 87.617188 26.582031 89.402344 24.660156 89.402344 21.863281 C 89.402344 19.078125 87.617188 17.15625 84.691406 17.15625 C 81.722656 17.15625 79.960938 19.078125 79.960938 21.863281 C 79.960938 24.660156 81.722656 26.582031 84.691406 26.582031 Z M 84.691406 12.128906 C 90.578125 12.128906 95.328125 15.960938 95.328125 21.863281 C 95.328125 27.800781 90.578125 31.613281 84.691406 31.613281 C 78.765625 31.613281 74.046875 27.800781 74.046875 21.863281 C 74.046875 15.960938 78.765625 12.128906 84.691406 12.128906 "/>
<path style=" stroke:none;fill-rule:nonzero;fill:rgb(13.587952%,12.979126%,12.802124%);fill-opacity:1;" d="M 98.601562 2.246094 L 104.5 2.246094 L 104.5 31.175781 L 98.601562 31.175781 L 98.601562 2.246094 "/>
<path style=" stroke:none;fill-rule:nonzero;fill:rgb(13.587952%,12.979126%,12.802124%);fill-opacity:1;" d="M 118.503906 17.15625 C 115.546875 17.15625 113.773438 19.078125 113.773438 21.863281 C 113.773438 24.660156 115.546875 26.582031 118.503906 26.582031 C 121.457031 26.582031 123.226562 24.660156 123.226562 21.863281 C 123.226562 19.078125 121.457031 17.15625 118.503906 17.15625 Z M 128.652344 31.175781 L 123.226562 31.175781 L 123.226562 28.726562 L 123.140625 28.726562 C 122.226562 30.046875 119.957031 31.613281 117.277344 31.613281 C 111.609375 31.613281 107.859375 27.640625 107.859375 22.035156 C 107.859375 16.855469 111.171875 12.128906 116.609375 12.128906 C 119.039062 12.128906 121.335938 12.761719 122.664062 14.558594 L 122.753906 14.558594 L 122.753906 12.566406 L 128.652344 12.566406 L 128.652344 31.175781 "/>
<path style=" stroke:none;fill-rule:nonzero;fill:rgb(13.587952%,12.979126%,12.802124%);fill-opacity:1;" d="M 133.660156 12.566406 L 139.597656 12.566406 L 139.597656 15.558594 L 139.671875 15.558594 C 140.929688 13.289062 142.59375 12.128906 145.179688 12.128906 C 145.863281 12.128906 146.597656 12.152344 147.132812 12.3125 L 147.132812 17.5625 C 146.316406 17.320312 145.496094 17.15625 144.617188 17.15625 C 140.136719 17.15625 139.597656 19.691406 139.597656 23.390625 L 139.597656 31.175781 L 133.660156 31.175781 L 133.660156 12.566406 "/>
<path style=" stroke:none;fill-rule:nonzero;fill:rgb(13.587952%,12.979126%,12.802124%);fill-opacity:1;" d="M 150.34375 12.566406 L 156.261719 12.566406 L 156.261719 31.175781 L 150.34375 31.175781 L 150.34375 12.566406 "/>
<path style=" stroke:none;fill-rule:nonzero;fill:rgb(13.587952%,12.979126%,12.802124%);fill-opacity:1;" d="M 171.882812 17.917969 C 170.941406 17.015625 169.550781 16.316406 168.132812 16.316406 C 167.152344 16.316406 165.933594 16.902344 165.933594 18.003906 C 165.933594 20.972656 176 18.675781 176 25.503906 C 176 30.257812 171.257812 31.613281 167.167969 31.613281 C 164.359375 31.613281 161.503906 30.953125 159.511719 28.949219 L 162.941406 25.503906 C 164.105469 26.613281 165.679688 27.421875 167.449219 27.421875 C 168.769531 27.421875 170.175781 26.921875 170.175781 25.945312 C 170.175781 22.707031 160.109375 25.296875 160.109375 18.394531 C 160.109375 14.023438 164.140625 12.128906 168.132812 12.128906 C 170.664062 12.128906 173.460938 12.726562 175.230469 14.558594 L 171.882812 17.917969 "/>
<path style=" stroke:none;fill-rule:nonzero;fill:rgb(13.587952%,12.979126%,12.802124%);fill-opacity:1;" d="M 150.34375 2.246094 L 156.261719 2.246094 L 156.261719 8.0625 L 150.34375 8.0625 L 150.34375 2.246094 "/>
<path style=" stroke:none;fill-rule:nonzero;fill:rgb(89.585876%,89.501953%,88.902283%);fill-opacity:1;" d="M 16.929688 -0.00390625 L 22.566406 -0.00390625 L 22.566406 5.640625 L 16.929688 5.640625 L 16.929688 -0.00390625 "/>
<g clip-path="url(#clip1)" clip-rule="nonzero">
<path style=" stroke:none;fill-rule:nonzero;fill:rgb(89.585876%,89.501953%,88.902283%);fill-opacity:1;" d="M 16.929688 33.855469 L 22.566406 33.855469 L 22.566406 39.5 L 16.929688 39.5 L 16.929688 33.855469 "/>
</g>
<path style=" stroke:none;fill-rule:nonzero;fill:rgb(89.585876%,89.501953%,88.902283%);fill-opacity:1;" d="M 0 16.929688 L 5.644531 16.929688 L 5.644531 22.570312 L 0 22.570312 L 0 16.929688 "/>
<path style=" stroke:none;fill-rule:nonzero;fill:rgb(89.585876%,89.501953%,88.902283%);fill-opacity:1;" d="M 33.851562 16.929688 L 39.492188 16.929688 L 39.492188 22.570312 L 33.851562 22.570312 L 33.851562 16.929688 "/>
<path style=" stroke:none;fill-rule:nonzero;fill:rgb(100%,100%,100%);fill-opacity:1;" d="M 16.929688 16.929688 L 22.566406 16.929688 L 22.566406 22.570312 L 16.929688 22.570312 L 16.929688 16.929688 "/>
<path style=" stroke:none;fill-rule:nonzero;fill:rgb(81.616211%,91.362%,44.490051%);fill-opacity:1;" d="M 22.566406 16.929688 L 28.214844 16.929688 L 28.214844 22.570312 L 22.566406 22.570312 L 22.566406 16.929688 "/>
<path style=" stroke:none;fill-rule:nonzero;fill:rgb(74.708557%,85.333252%,92.355347%);fill-opacity:1;" d="M 16.929688 11.285156 L 22.566406 11.285156 L 22.566406 16.929688 L 16.929688 16.929688 L 16.929688 11.285156 "/>
<path style=" stroke:none;fill-rule:nonzero;fill:rgb(46.751404%,64.659119%,82.16095%);fill-opacity:1;" d="M 16.929688 5.640625 L 22.566406 5.640625 L 22.566406 11.285156 L 16.929688 11.285156 L 16.929688 5.640625 "/>
<path style=" stroke:none;fill-rule:nonzero;fill:rgb(46.751404%,64.659119%,82.16095%);fill-opacity:1;" d="M 22.566406 11.285156 L 28.214844 11.285156 L 28.214844 16.929688 L 22.566406 16.929688 L 22.566406 11.285156 "/>
<path style=" stroke:none;fill-rule:nonzero;fill:rgb(46.751404%,64.659119%,82.16095%);fill-opacity:1;" d="M 11.285156 11.285156 L 16.929688 11.285156 L 16.929688 16.929688 L 11.285156 16.929688 L 11.285156 11.285156 "/>
<path style=" stroke:none;fill-rule:nonzero;fill:rgb(86.122131%,51.235962%,78.155518%);fill-opacity:1;" d="M 11.285156 16.929688 L 16.929688 16.929688 L 16.929688 22.570312 L 11.285156 22.570312 L 11.285156 16.929688 "/>
<path style=" stroke:none;fill-rule:nonzero;fill:rgb(86.122131%,51.235962%,78.155518%);fill-opacity:1;" d="M 16.929688 22.570312 L 22.566406 22.570312 L 22.566406 28.214844 L 16.929688 28.214844 L 16.929688 22.570312 "/>
<path style=" stroke:none;fill-rule:nonzero;fill:rgb(44.53125%,78.369141%,17.399597%);fill-opacity:1;" d="M 28.214844 16.929688 L 33.851562 16.929688 L 33.851562 22.570312 L 28.214844 22.570312 L 28.214844 16.929688 "/>
<path style=" stroke:none;fill-rule:nonzero;fill:rgb(44.53125%,78.369141%,17.399597%);fill-opacity:1;" d="M 22.566406 22.570312 L 28.214844 22.570312 L 28.214844 28.214844 L 22.566406 28.214844 L 22.566406 22.570312 "/>
<path style=" stroke:none;fill-rule:nonzero;fill:rgb(53.512573%,10.50415%,51.754761%);fill-opacity:1;" d="M 5.644531 16.929688 L 11.285156 16.929688 L 11.285156 22.570312 L 5.644531 22.570312 L 5.644531 16.929688 "/>
<path style=" stroke:none;fill-rule:nonzero;fill:rgb(53.512573%,10.50415%,51.754761%);fill-opacity:1;" d="M 16.929688 28.214844 L 22.566406 28.214844 L 22.566406 33.855469 L 16.929688 33.855469 L 16.929688 28.214844 "/>
<path style=" stroke:none;fill-rule:nonzero;fill:rgb(53.512573%,10.50415%,51.754761%);fill-opacity:1;" d="M 11.285156 22.570312 L 16.929688 22.570312 L 16.929688 28.214844 L 11.285156 28.214844 L 11.285156 22.570312 "/>
</g>
</svg>

<svg xmlns="http://www.w3.org/2000/svg" width="176pt" height="39.5pt" viewBox="0 0 176 39.5"><defs><clipPath id="a"><path d="M16 33h7v6.5h-7Zm0 0"/></clipPath></defs><path d="M51.656 12.566h6.39L62.899 25.2h.094l4.473-12.633h5.945l-7.531 18.61h-6.266zM84.691 26.582c2.926 0 4.711-1.922 4.711-4.719 0-2.785-1.785-4.707-4.71-4.707-2.97 0-4.731 1.922-4.731 4.707 0 2.797 1.762 4.719 4.73 4.719m0-14.453c5.887 0 10.637 3.832 10.637 9.734 0 5.938-4.75 9.75-10.637 9.75-5.925 0-10.644-3.812-10.644-9.75 0-5.902 4.719-9.734 10.644-9.734M98.602 2.246h5.898v28.93h-5.898zM118.504 17.156c-2.957 0-4.73 1.922-4.73 4.707 0 2.797 1.773 4.719 4.73 4.719 2.953 0 4.723-1.922 4.723-4.719 0-2.785-1.77-4.707-4.723-4.707m10.148 14.02h-5.425v-2.45h-.086c-.914 1.32-3.184 2.887-5.864 2.887-5.668 0-9.418-3.972-9.418-9.578 0-5.18 3.313-9.906 8.75-9.906 2.43 0 4.727.633 6.055 2.43h.09v-1.993h5.898zM133.66 12.566h5.938v2.993h.074c1.258-2.27 2.922-3.43 5.508-3.43.683 0 1.418.023 1.953.184v5.25c-.817-.243-1.637-.407-2.516-.407-4.48 0-5.02 2.535-5.02 6.235v7.785h-5.937zM150.344 12.566h5.918v18.61h-5.918zM171.883 17.918c-.942-.902-2.332-1.602-3.75-1.602-.98 0-2.2.586-2.2 1.688 0 2.969 10.067.672 10.067 7.5 0 4.754-4.742 6.11-8.832 6.11-2.809 0-5.664-.66-7.656-2.665l3.43-3.445c1.163 1.11 2.738 1.918 4.507 1.918 1.32 0 2.727-.5 2.727-1.477 0-3.238-10.067-.648-10.067-7.55 0-4.372 4.032-6.266 8.024-6.266 2.531 0 5.328.598 7.097 2.43zM150.344 2.246h5.918v5.817h-5.918z" style="stroke:none;fill-rule:nonzero;fill:#232121;fill-opacity:1"/><path d="M16.93-.004h5.636v5.645H16.93z" style="stroke:none;fill-rule:nonzero;fill:#e4e4e3;fill-opacity:1"/><g clip-path="url(#a)"><path d="M16.93 33.855h5.636V39.5H16.93z" style="stroke:none;fill-rule:nonzero;fill:#e4e4e3;fill-opacity:1"/></g><path d="M0 16.93h5.645v5.64H0zM33.852 16.93h5.64v5.64h-5.64z" style="stroke:none;fill-rule:nonzero;fill:#e4e4e3;fill-opacity:1"/><path d="M16.93 16.93h5.636v5.64H16.93z" style="stroke:none;fill-rule:nonzero;fill:#fff;fill-opacity:1"/><path d="M22.566 16.93h5.649v5.64h-5.649z" style="stroke:none;fill-rule:nonzero;fill:#d0e971;fill-opacity:1"/><path d="M16.93 11.285h5.636v5.645H16.93z" style="stroke:none;fill-rule:nonzero;fill:#bfdaec;fill-opacity:1"/><path d="M16.93 5.64h5.636v5.645H16.93zM22.566 11.285h5.649v5.645h-5.649zM11.285 11.285h5.645v5.645h-5.645z" style="stroke:none;fill-rule:nonzero;fill:#77a5d2;fill-opacity:1"/><path d="M11.285 16.93h5.645v5.64h-5.645zM16.93 22.57h5.636v5.645H16.93z" style="stroke:none;fill-rule:nonzero;fill:#dc83c7;fill-opacity:1"/><path d="M28.215 16.93h5.637v5.64h-5.637zM22.566 22.57h5.649v5.645h-5.649z" style="stroke:none;fill-rule:nonzero;fill:#72c82c;fill-opacity:1"/><path d="M5.645 16.93h5.64v5.64h-5.64zM16.93 28.215h5.636v5.64H16.93zM11.285 22.57h5.645v5.645h-5.645z" style="stroke:none;fill-rule:nonzero;fill:#881b84;fill-opacity:1"/></svg>
